symbols/web/mosque/materialsymbolssharp/mosque_wght200grad200_48px.svg

<svg xmlns="http://www.w3.org/2000/svg" height="48" width="48"><path d="M2.7 41.3V16.6q-.95-.4-1.475-1.175Q.7 14.65.7 13.7q0-.85.8-2.05.8-1.2 2.25-2.6 1.5 1.4 2.325 2.6.825 1.2.825 2.05 0 .95-.55 1.7T4.9 16.6v10.05h6.05V18.7h4.1q-1-1-1.55-2.175-.55-1.175-.55-2.575 0-1.8.825-3.3.825-1.5 2.275-2.5L24 2.8l8 5.35q1.4 1 2.25 2.525.85 1.525.85 3.275 0 1.4-.575 2.575Q33.95 17.7 33 18.7h4.1v7.95h6.05V16.6q-.95-.45-1.475-1.2-.525-.75-.525-1.7 0-.85.8-2.05.8-1.2 2.3-2.6 1.45 1.4 2.275 2.6.825 1.2.825 2.05 0 .95-.55 1.7t-1.45 1.25V41.3h-18.4V31.05H21.1V41.3Zm17.1-22.7h8.4q2 0 3.375-1.325T32.95 13.9q0-1.2-.575-2.25t-1.525-1.7L24 5.45l-6.8 4.5q-1 .65-1.55 1.7-.55 1.05-.55 2.25 0 2.05 1.35 3.375Q17.8 18.6 19.8 18.6ZM4.9 39.1h14.05V28.9H29.1v10.2h14.05V28.85h-8.2V20.8H13.1v8.05H4.9ZM24 20.8Zm0-2.2Zm0 .1Z"/></svg>

<svg xmlns="http://www.w3.org/2000/svg" height="48" width="48"><path d="M2.7 41.3V16.6Q1.75 16.2 1.225 15.425Q0.7 14.65 0.7 13.7Q0.7 12.85 1.5 11.65Q2.3 10.45 3.75 9.05Q5.25 10.45 6.075 11.65Q6.9 12.85 6.9 13.7Q6.9 14.65 6.35 15.4Q5.8 16.15 4.9 16.6V26.65H10.95V18.7H13.65H15.05Q14.05 17.7 13.5 16.525Q12.95 15.35 12.95 13.95Q12.95 12.15 13.775 10.65Q14.6 9.15 16.05 8.15L24 2.8L32 8.15Q33.4 9.15 34.25 10.675Q35.1 12.2 35.1 13.95Q35.1 15.35 34.525 16.525Q33.95 17.7 33 18.7H34.4H37.1V26.65H43.15V16.6Q42.2 16.15 41.675 15.4Q41.15 14.65 41.15 13.7Q41.15 12.85 41.95 11.65Q42.75 10.45 44.25 9.05Q45.7 10.45 46.525 11.65Q47.35 12.85 47.35 13.7Q47.35 14.65 46.8 15.4Q46.25 16.15 45.35 16.65V41.3H26.95V31.05H21.1V41.3ZM19.8 18.6H28.2Q30.2 18.6 31.575 17.275Q32.95 15.95 32.95 13.9Q32.95 12.7 32.375 11.65Q31.8 10.6 30.85 9.95L24 5.45L17.2 9.95Q16.2 10.6 15.65 11.65Q15.1 12.7 15.1 13.9Q15.1 15.95 16.45 17.275Q17.8 18.6 19.8 18.6ZM4.9 39.1H18.95V28.9H29.1V39.1H43.15V28.85H34.95V20.8H13.1V28.85H4.9ZM24 20.8ZM24 18.6Q24 18.6 24 18.6Q24 18.6 24 18.6Q24 18.6 24 18.6Q24 18.6 24 18.6Q24 18.6 24 18.6Q24 18.6 24 18.6Q24 18.6 24 18.6Q24 18.6 24 18.6ZM24 18.7Q24 18.7 24 18.7Q24 18.7 24 18.7Q24 18.7 24 18.7Q24 18.7 24 18.7Q24 18.7 24 18.7Q24 18.7 24 18.7Q24 18.7 24 18.7Q24 18.7 24 18.7Z"/></svg>
